X: 19686
T: Jenny Dang The Weaver
R: reel
M: 4/4
K: Dmajor
dA~A2 AFAB|dA~A2 f2ef|dBBA B2dB|ABde f2ef:|
d2fd efge|defd fgfe|d2fd efge|aA~A2 f2ef|
d2fd efge|defd fgfe|d2fd efge|abag fgef||

